X:17630
T:Tonada (CT 113)
R:Tonada
C:Tradicional
S:Música Tradicional Asturiana, (C) Tello & Tito. Asturies, 2001.
S:http://pagina.de/MusTradAst <telloytito@asturies.org>
N:Canción de empleo indeterminado, transcrita en Pelúgano, ayuntamiento de Ayer.
N:Variante de la número CT 114.
O:Pelúganu (Ayer)
A:Asturies
Z:Cancioneru de Torner 113
M:3/8
L:1/8
Q:3/8=83
W:Esta noche ha llovido,
W:mañana hay barro;
W:cuatro pares de mulas
W:lleva mi carro.
W:
W:Cuatro pares de mulas,
W:cutro zagales,
W:cuatro delanterillos,
W:tres mayorales.
W:
W:Cuatro delanterillos,
W:tres mayorales,
W:cutro son los que rondan,
W:niña, tu calle.
K:Gm
|:G2 B|ddd|edc-|cee|(f>e)d-|d2 z|
G2 B|ddd|edc-|cBA|(B>A)G-|G2 z:||



Xuaca a La Madalena.
K:Gm
dd|:cA/B/ dd|c(A/B/) cc|A^F/G/ AA|G2 dd|
cA/B/ dd|cA/B/ cc|A^F/G/ AA|[1 G2 dd:|[2 G2 cc|
|A(^F/G/) AA|G2 cc|A^F/G/ AA|G2 cc|
A^F/G/ AA|G>G cc|A/A/^F/G/ AB/A/|G2 z2||



